lib/brands/icons/citrix.svg

<svg xmlns="http://www.w3.org/2000/svg" fill="none" aria-hidden="true" viewBox="0 0 48 48"><g id="citrix-Icon"><g id="Union"><path fill="#005463" d="M25.4995 6.48786C25.0724 6.18597 24.5655 6.01714 24.0426 6.0026C23.6901 5.98685 23.338 6.04276 23.0077 6.16698C22.6774 6.2912 22.3757 6.48115 22.121 6.72531C21.8662 6.96947 21.6635 7.26279 21.5254 7.5875C21.3872 7.91222 21.3163 8.26157 21.3171 8.61446C21.3093 9.13747 21.4564 9.65109 21.7398 10.0907C22.0233 10.5303 22.4304 10.8763 22.9099 11.0852C23.3895 11.2941 23.9201 11.3564 24.435 11.2645C24.95 11.1726 25.4262 10.9304 25.8039 10.5685C26.1815 10.2066 26.4437 9.74111 26.5575 9.23057C26.6713 8.72003 26.6315 8.18724 26.4433 7.69922C26.255 7.2112 25.9267 6.78974 25.4995 6.48786Z"/><path fill="#005463" d="M23.7565 31.0972C23.8286 31.0166 23.9025 30.9341 23.9788 30.8483C24.038 30.9115 24.091 30.9672 24.1398 31.0184C24.2319 31.1152 24.3086 31.1957 24.382 31.2796C27.2441 34.5608 30.0995 37.8476 32.9483 41.1398C33.4053 41.6688 33.9473 42.1537 34.6367 41.9446C35.1919 41.7639 35.6723 41.4056 36.0037 40.9248C36.417 40.2813 36.1225 39.5984 35.6292 39.0316C32.6952 35.6602 29.7632 32.2872 26.8332 28.9126C26.6966 28.7558 26.5694 28.5908 26.443 28.427C26.3866 28.3539 26.3303 28.2809 26.2735 28.2091C26.3422 28.1271 26.4023 28.0549 26.4569 27.9892C26.561 27.8641 26.6453 27.7628 26.7316 27.6632C29.6643 24.2916 32.5947 20.9174 35.5231 17.5407C36.3636 16.5725 36.3768 15.5432 35.5757 14.8715C34.7898 14.2136 33.7644 14.3928 32.9379 15.3391C32.5225 15.815 32.109 16.2917 31.6953 16.7687C31.5234 16.9669 31.3514 17.1652 31.1792 17.3635C28.7976 20.1034 26.4156 22.8433 23.9889 25.6344C23.5774 25.1614 23.1685 24.6915 22.7616 24.2239C21.695 22.9983 20.6418 21.7881 19.5896 20.5772C18.0163 18.7744 16.4479 16.9673 14.8845 15.1557C14.6727 14.8784 14.3821 14.6714 14.0507 14.562C13.7193 14.4526 13.3626 14.4458 13.0273 14.5425C12.3475 14.719 11.8407 15.2241 11.8652 15.885C11.8999 16.5005 12.1262 17.0896 12.5124 17.57C14.6413 20.0763 16.8004 22.5575 18.9596 25.0389C19.7148 25.9068 20.47 26.7748 21.224 27.6438C21.3363 27.7734 21.4411 27.9097 21.5501 28.0515C21.6006 28.1172 21.652 28.184 21.7054 28.2519C21.6076 28.3655 21.513 28.4756 21.4206 28.5832C21.1948 28.8461 20.982 29.0939 20.7678 29.3403C17.9847 32.5359 15.2038 35.7337 12.4252 38.9337C11.6088 39.8738 11.5942 40.819 12.3666 41.5385C13.1469 42.2654 14.1585 42.1283 14.9976 41.1646C17.7779 37.9663 20.5582 34.7678 23.3383 31.5692C23.4738 31.4132 23.6115 31.2592 23.7565 31.0972Z"/></g></g></svg>

<svg xmlns="http://www.w3.org/2000/svg" fill="none" aria-hidden="true" viewBox="0 0 48 48"><path fill="#005463" d="M25.5 6.488a2.652 2.652 0 0 0-1.457-.485 2.61 2.61 0 0 0-2.726 2.611A2.652 2.652 0 1 0 25.5 6.488Zm-1.744 24.609c.073-.08.146-.163.223-.249l.16.17c.093.097.17.178.243.262 2.862 3.28 5.717 6.568 8.566 9.86.457.529 1 1.014 1.689.805a2.66 2.66 0 0 0 1.367-1.02c.413-.644.119-1.327-.375-1.893-2.934-3.372-5.866-6.745-8.796-10.12a10.084 10.084 0 0 1-.39-.485l-.17-.218c.07-.082.13-.154.184-.22.104-.125.188-.226.275-.326 2.932-3.371 5.863-6.746 8.791-10.122.84-.968.854-1.998.053-2.67-.786-.657-1.812-.478-2.638.468a596.571 596.571 0 0 0-1.759 2.024l-7.19 8.271-1.227-1.41-3.172-3.647c-1.574-1.803-3.142-3.61-4.706-5.421a1.733 1.733 0 0 0-1.857-.614c-.68.177-1.186.682-1.162 1.343.035.615.261 1.205.647 1.685a831.201 831.201 0 0 0 6.448 7.469l2.264 2.605c.112.13.217.266.326.408l.155.2-.284.331-.653.757a8575.22 8575.22 0 0 0-8.343 9.594c-.816.94-.83 1.885-.058 2.605.78.726 1.791.59 2.63-.374l8.341-9.596c.136-.156.273-.31.418-.472Z"/></svg>
